projects/vfh1/img/icons/adv-1.svg

<svg width="30" height="24" viewBox="0 0 30 24" fill="none" xmlns="http://www.w3.org/2000/svg">
<path d="M3.57073 0.878049C3.57073 0.393132 3.1776 0 2.69268 0H0.878049C0.393132 0 0 0.393132 0 0.878049V12.5854C0 13.0703 0.393132 13.4634 0.878049 13.4634H2.69268C3.1776 13.4634 3.57073 13.0703 3.57073 12.5854V8.78049H5.32683V4.68293H3.57073V0.878049Z" fill="#42474D"/>
<path d="M29.0933 0H27.2787C26.7938 0 26.4006 0.393132 26.4006 0.878049V4.68293H24.6445V8.78049H26.4006V12.5854C26.4006 13.0703 26.7938 13.4634 27.2787 13.4634H29.0933C29.5782 13.4634 29.9714 13.0703 29.9714 12.5854V0.878049C29.9714 0.393132 29.5782 0 29.0933 0Z" fill="#42474D"/>
<path d="M20.9113 2.34146C19.8202 2.34146 18.9357 3.22595 18.9357 4.31707C18.9357 3.22595 18.0512 2.34146 16.9601 2.34146C15.869 2.34146 14.9845 3.22595 14.9845 4.31707C14.9845 3.22595 14.1 2.34146 13.0089 2.34146C11.9177 2.34146 11.0333 3.22595 11.0333 4.31707C11.0333 3.22595 10.1488 2.34146 9.05764 2.34146C7.96652 2.34146 7.08203 3.22595 7.08203 4.31707V8.00593C7.6146 7.75223 8.20997 7.60975 8.83813 7.60975H14.6918C14.7908 7.60975 14.8883 7.61572 14.9845 7.62638C16.2997 7.77249 17.3259 8.89036 17.3259 10.2439V10.5366C17.3259 10.725 17.3148 10.9107 17.293 11.0934C18.2255 10.9351 18.9357 10.1239 18.9357 9.14634C18.9357 10.2375 19.8202 11.1219 20.9113 11.1219C22.0024 11.1219 22.8869 10.2375 22.8869 9.14634V4.31707C22.8869 3.22595 22.0024 2.34146 20.9113 2.34146Z" fill="#42474D"/>
<path d="M18.9371 12.3101C18.3636 12.6694 17.6866 12.878 16.9615 12.878C16.9514 12.878 16.9414 12.8776 16.9314 12.8775C16.2727 14.2609 14.8612 15.2195 13.2298 15.2195H12.059V15.4874C12.059 15.9602 11.6957 16.367 11.2234 16.3892C10.7192 16.413 10.3029 16.0112 10.3029 15.5122V14.3415C10.3029 13.8565 10.6961 13.4634 11.181 13.4634H12.6444C14.2608 13.4634 15.5712 12.153 15.5712 10.5366V10.2439C15.5712 9.75898 15.1781 9.36584 14.6932 9.36584H8.83951C7.54638 9.36584 6.49805 10.4142 6.49805 11.7073V15.5122C6.49805 17.8346 8.31081 19.7416 10.5956 19.8928V23.1219C10.5956 23.6069 10.9887 24 11.4737 24H18.498C18.983 24 19.3761 23.6069 19.3761 23.1219V19.8142C21.3775 19.4062 22.8883 17.6323 22.8883 15.5122V12.3101C22.3149 12.6694 21.6378 12.878 20.9127 12.878C20.1875 12.878 19.5105 12.6694 18.9371 12.3101Z" fill="#42474D"/>
</svg>

<svg width="30" height="24" fill="none" xmlns="http://www.w3.org/2000/svg"><path d="M3.57.878A.878.878 0 002.694 0H.878A.878.878 0 000 .878v11.707c0 .485.393.878.878.878h1.815a.878.878 0 00.878-.878V8.78h1.756V4.683H3.57V.878zM29.093 0H27.28a.878.878 0 00-.878.878v3.805h-1.756V8.78H26.4v3.805c0 .485.393.878.878.878h1.814a.878.878 0 00.878-.878V.878A.878.878 0 0029.093 0zm-8.182 2.341a1.976 1.976 0 00-1.975 1.976 1.976 1.976 0 10-3.951 0 1.976 1.976 0 10-3.952 0 1.976 1.976 0 10-3.951 0v3.689a4.073 4.073 0 011.756-.396h5.854a2.638 2.638 0 012.634 2.634v.293c0 .188-.011.374-.033.556a1.976 1.976 0 001.643-1.947 1.976 1.976 0 103.95 0V4.317a1.976 1.976 0 00-1.975-1.976z" fill="#42474D"/><path d="M18.937 12.31a3.71 3.71 0 01-1.976.568h-.03a4.102 4.102 0 01-3.701 2.341h-1.171v.268c0 .473-.363.88-.836.902a.878.878 0 01-.92-.877v-1.17c0-.486.393-.879.878-.879h1.463a2.927 2.927 0 002.927-2.926v-.293a.878.878 0 00-.878-.878H8.84a2.342 2.342 0 00-2.342 2.341v3.805a4.396 4.396 0 004.098 4.38v3.23c0 .485.393.878.878.878h7.024a.878.878 0 00.878-.878v-3.308a4.398 4.398 0 003.512-4.302V12.31a3.7 3.7 0 01-1.975.568 3.709 3.709 0 01-1.976-.568z" fill="#42474D"/></svg>
